X: 15791
T: Goodbye Miss Goodavich
R: reel
M: 4/4
K: Eminor
|:eB B2 cBAG|AEGA DE G2|(3B^cd ed geag|f3a gfed|
eB B2 cBAG|AEGA DE G2|GeBG FdAF|FEBA GEGA|
B2 B2 cBAG|AEGA DE G2|(3B^cd ed geag|f3a gfed|
eB B2 cBAG|AEGA DE G2|GeBG FdAF|FEBA GEGA||
|:BD (3GAB edcB|AF F2 DF F2|(3B^cd fd a3b|geed efga|
b3g effe|adfa bagf|geBG FdAF|1 FEBA GEGA:|2 FEBA GE (3B^cd||

